www/assets/icons/laptop_chromebook.svg

<svg width="24" height="24" viewBox="0 0 24 24" xmlns="http://www.w3.org/2000/svg" fill='currentColor'><path d="M22 18.5V3.5H2V18.5H0V20.5H24V18.5H22ZM14 18.5H10V17.5H14V18.5ZM20 15.5H4V5.5H20V15.5Z"/></svg>

<svg xmlns="http://www.w3.org/2000/svg" width="24" height="24" viewBox="0 0 24 24" fill='currentColor'><path d="M22 18.5v-15H2v15H0v2h24v-2zm-8 0h-4v-1h4zm6-3H4v-10h16z"/></svg>
